build/images/Vector.svg

<svg width="73" height="68" viewBox="0 0 73 68" fill="none" xmlns="http://www.w3.org/2000/svg">
<g filter="url(#filter0_d_243_270)">
<path d="M39.2616 2.8125V4.04297C39.9747 4.18359 40.6654 4.35938 41.2894 4.53516C42.7155 4.93359 43.5622 6.48047 43.1834 7.98047C42.8046 9.48047 41.3339 10.3711 39.9078 9.97266C38.6934 9.63281 37.5569 9.39844 36.5431 9.38672C35.7297 9.375 34.9053 9.58594 34.3816 9.90234C34.1476 10.0547 34.0362 10.1836 33.9916 10.2539C33.9582 10.3125 33.9137 10.3945 33.9137 10.582C33.9137 10.6172 33.9137 10.6406 33.9137 10.6523C33.9359 10.6758 34.0139 10.793 34.2813 10.957C34.9275 11.3672 35.8857 11.6836 37.3341 12.1406L37.4344 12.1758C38.6711 12.5625 40.32 13.0898 41.657 13.9687C43.1834 14.9766 44.565 16.6523 44.5984 19.2305C44.6318 21.8672 43.3283 23.7891 41.6236 24.9141C40.8771 25.3945 40.0749 25.7344 39.2505 25.9453V27.1875C39.2505 28.7461 38.0583 30 36.5765 30C35.0947 30 33.9025 28.7461 33.9025 27.1875V25.8516C32.8441 25.582 31.8748 25.2305 31.0503 24.9375C30.8163 24.8555 30.5935 24.7734 30.3818 24.7031C28.978 24.2109 28.2203 22.6172 28.6883 21.1406C29.1562 19.6641 30.6715 18.8672 32.0753 19.3594C32.365 19.4648 32.6324 19.5586 32.8886 19.6523C34.4039 20.1914 35.4958 20.5781 36.6656 20.625C37.5569 20.6602 38.348 20.4375 38.8048 20.1445C39.0165 20.0039 39.1168 19.8867 39.1613 19.8047C39.2059 19.7344 39.2616 19.5937 39.2505 19.3242V19.3008C39.2505 19.1836 39.2505 19.0547 38.8048 18.7617C38.1697 18.3398 37.2115 18.0117 35.7854 17.5547L35.5737 17.4844C34.3705 17.1094 32.7884 16.6055 31.5182 15.7969C30.0141 14.8477 28.5657 13.2187 28.5546 10.6289C28.5434 7.94531 29.9918 6.10547 31.6408 5.07422C32.3538 4.62891 33.1226 4.32422 33.8914 4.11328V2.8125C33.8914 1.25391 35.0835 0 36.5653 0C38.0472 0 39.2393 1.25391 39.2393 2.8125H39.2616ZM67.8062 39.4102C69.2657 41.4961 68.8424 44.4258 66.8592 45.9609L52.754 56.8945C50.1469 58.9102 47.005 60 43.7628 60H25.8917H8.06529C6.09324 60 4.5 58.3242 4.5 56.25V48.75C4.5 46.6758 6.09324 45 8.06529 45H12.1654L17.1679 40.7812C19.6971 38.6484 22.839 37.5 26.0812 37.5H34.805H36.5876H43.7182C45.6903 37.5 47.2835 39.1758 47.2835 41.25C47.2835 43.3242 45.6903 45 43.7182 45H36.5876H34.805C33.8245 45 33.0223 45.8438 33.0223 46.875C33.0223 47.9062 33.8245 48.75 34.805 48.75H48.2417L61.5781 38.4141C63.5613 36.8789 66.3467 37.3242 67.8062 39.4102ZM26.07 45H25.9697C26.0032 45 26.0366 45 26.07 45Z" fill="white"/>
</g>
<defs>
<filter id="filter0_d_243_270" x="0.5" y="0" width="72.1746" height="68" filterUnits="userSpaceOnUse" color-interpolation-filters="sRGB">
<feFlood flood-opacity="0" result="BackgroundImageFix"/>
<feColorMatrix in="SourceAlpha" type="matrix" values="0 0 0 0 0 0 0 0 0 0 0 0 0 0 0 0 0 0 127 0" result="hardAlpha"/>
<feOffset dy="4"/>
<feGaussianBlur stdDeviation="2"/>
<feComposite in2="hardAlpha" operator="out"/>
<feColorMatrix type="matrix" values="0 0 0 0 0 0 0 0 0 0 0 0 0 0 0 0 0 0 0.25 0"/>
<feBlend mode="normal" in2="BackgroundImageFix" result="effect1_dropShadow_243_270"/>
<feBlend mode="normal" in="SourceGraphic" in2="effect1_dropShadow_243_270" result="shape"/>
</filter>
</defs>
</svg>

<svg width="73" height="68" fill="none" xmlns="http://www.w3.org/2000/svg"><g filter="url(#filter0_d_243_270)"><path d="M39.262 2.813v1.23c.713.14 1.403.316 2.027.492 1.426.399 2.273 1.945 1.894 3.445-.378 1.5-1.85 2.391-3.275 1.993-1.215-.34-2.351-.575-3.365-.586-.813-.012-1.638.199-2.161.515-.234.153-.346.282-.39.352a.58.58 0 00-.078.328v.07c.022.024.1.141.367.305.647.41 1.605.727 3.053 1.184l.1.035c1.237.386 2.886.914 4.223 1.793 1.526 1.008 2.908 2.683 2.941 5.261.034 2.637-1.27 4.56-2.974 5.684-.747.48-1.55.82-2.373 1.031v1.242c0 1.56-1.193 2.813-2.674 2.813-1.482 0-2.674-1.254-2.674-2.813v-1.335c-1.059-.27-2.028-.622-2.853-.915-.234-.082-.457-.164-.668-.234-1.404-.492-2.162-2.086-1.694-3.562.468-1.477 1.984-2.274 3.387-1.782.29.106.557.2.814.293 1.515.54 2.607.926 3.777.973.89.035 1.682-.188 2.139-.48.212-.141.312-.258.356-.34.045-.07.1-.211.09-.48V19.3c0-.117 0-.246-.446-.54-.635-.421-1.593-.75-3.02-1.206l-.211-.07c-1.203-.376-2.786-.88-4.056-1.688-1.504-.95-2.952-2.578-2.963-5.168-.012-2.684 1.437-4.524 3.086-5.555a8.45 8.45 0 012.25-.96V2.812c0-1.56 1.193-2.813 2.674-2.813 1.482 0 2.674 1.254 2.674 2.813h.023zM67.806 39.41c1.46 2.086 1.036 5.016-.947 6.55L52.754 56.895C50.147 58.91 47.005 60 43.763 60H8.065C6.093 60 4.5 58.324 4.5 56.25v-7.5C4.5 46.676 6.093 45 8.065 45h4.1l5.003-4.219c2.53-2.133 5.671-3.281 8.913-3.281h17.637c1.972 0 3.565 1.676 3.565 3.75S45.69 45 43.718 45h-8.913c-.98 0-1.783.844-1.783 1.875 0 1.031.803 1.875 1.783 1.875h13.437l13.336-10.336c1.983-1.535 4.769-1.09 6.228.996zM26.07 45h-.1.1z" fill="#fff"/></g><defs><filter id="filter0_d_243_270" x=".5" y="0" width="72.175" height="68" filterUnits="userSpaceOnUse" color-interpolation-filters="sRGB"><feFlood flood-opacity="0" result="BackgroundImageFix"/><feColorMatrix in="SourceAlpha" values="0 0 0 0 0 0 0 0 0 0 0 0 0 0 0 0 0 0 127 0" result="hardAlpha"/><feOffset dy="4"/><feGaussianBlur stdDeviation="2"/><feComposite in2="hardAlpha" operator="out"/><feColorMatrix values="0 0 0 0 0 0 0 0 0 0 0 0 0 0 0 0 0 0 0.25 0"/><feBlend in2="BackgroundImageFix" result="effect1_dropShadow_243_270"/><feBlend in="SourceGraphic" in2="effect1_dropShadow_243_270" result="shape"/></filter></defs></svg>
